swiss/communes/0197.svg

<?xml version="1.0" encoding="UTF-8" standalone="no"?>
<!-- Created with Inkscape (http://www.inkscape.org/) -->
<svg
   xmlns:svg="http://www.w3.org/2000/svg"
   xmlns="http://www.w3.org/2000/svg"
   version="1.0"
   width="214.07071"
   height="250.75047"
   id="svg2780">
  <defs
     id="defs2782" />
  <g
     transform="translate(-17.716535,-811.86226)"
     id="layer1">
    <path
       d="M 18.716535,812.86226 L 22.572362,974.83932 C 25.326517,1090.5372 224.17727,1090.5372 226.93143,974.83932 L 230.78725,812.86226 L 18.716535,812.86226 z "
       style="fill:#ffef08;fill-opacity:1;fill-rule:evenodd;stroke:#000000;stroke-width:2;stroke-linecap:butt;stroke-miterlimit:4;stroke-dashoffset:0;stroke-opacity:1"
       id="path3282" />
    <path
       d="M 62.03125,78.96875 C 47.68486,78.96875 45.346388,89.468748 31,89.46875 C 27.303278,89.46875 23.823406,88.851193 20.59375,87.9375 L 22.5,168.40625 C 25.171672,169.03769 27.990812,169.4375 31,169.4375 C 45.346388,169.4375 47.684859,158.96875 62.03125,158.96875 C 76.377642,158.96875 78.684856,169.43749 93.03125,169.4375 C 107.37764,169.4375 109.68486,158.96875 124.03125,158.96875 C 138.37766,158.96875 140.71612,169.43749 155.0625,169.4375 C 169.40889,169.4375 171.70985,158.96875 186.03125,158.96875 C 200.35267,158.96875 202.68486,169.43749 217.03125,169.4375 C 220.53836,169.4375 223.87444,168.97738 227,168.25 L 228.90625,87.75 C 225.22755,88.766626 221.23226,89.468749 217.03125,89.46875 C 202.68486,89.46875 200.35266,78.968749 186.03125,78.96875 C 171.70986,78.96875 169.40889,89.468748 155.0625,89.46875 C 140.71612,89.46875 138.37766,78.968749 124.03125,78.96875 C 109.68486,78.96875 107.37763,89.468748 93.03125,89.46875 C 78.68486,89.46875 76.377641,78.968749 62.03125,78.96875 z "
       transform="translate(0,804.33069)"
       style="fill:#000000;fill-opacity:1;fill-rule:evenodd;stroke:none;stroke-width:1px;stroke-linecap:butt;stroke-linejoin:miter;stroke-opacity:1"
       id="path13401" />
    <path
       d="M 99.136094,913.37689 C 100.4362,908.0012 111.48504,901.81058 122.4257,899.47685 C 124.2708,899.08168 124.93034,901.73084 123.55936,901.91019 C 116.64979,902.80831 106.35595,908.62309 103.45631,913.538 C 106.35595,908.57904 116.66848,903.11866 123.55936,901.91019 C 125.82781,901.51237 126.1226,903.82999 124.96528,904.11437 C 119.533,905.44919 111.27414,909.0818 107.17983,913.47526 C 111.27414,909.0818 119.46034,905.28703 124.96528,904.11437 C 126.90514,903.70114 127.11968,906.58931 126.24701,906.74568 C 121.29677,907.63267 115.10887,911.784 113.77596,913.72347 C 115.10887,911.784 121.37787,907.97059 126.24701,906.74568 C 127.76881,906.36285 128.73354,908.96379 127.50218,909.33749 C 124.39349,910.28094 120.78917,912.65447 120.17602,914.23495 C 120.78501,912.59495 124.37786,910.20339 127.50218,909.33749 C 129.42142,908.80558 130.90222,913.52522 127.2199,914.23867"
       style="opacity:1;color:#000000;fill:#ffffff;fill-opacity:1;fill-rule:evenodd;stroke:#000000;stroke-width:1px;stroke-linecap:butt;stroke-linejoin:miter;marker:none;marker-start:none;marker-mid:none;marker-end:none;stroke-miterlimit:4;stroke-dasharray:none;stroke-dashoffset:0;stroke-opacity:1;visibility:visible;display:inline;overflow:visible;enable-background:accumulate"
       id="path9523" />
    <path
       d="M 160.50476,942.03068 C 161.00196,942.57775 162.03873,943.2802 162.77446,943.70322 C 164.23148,944.54095 163.17216,946.96168 162.01803,946.20028 C 160.69485,945.32734 158.45588,944.36558 157.14256,942.90986 C 158.45588,944.42788 160.71408,945.39695 162.01803,946.20028 C 163.20894,946.93396 162.25641,949.95353 160.43221,948.84331 C 157.91208,947.30954 154.85788,945.73127 152.89827,943.92477 C 154.85788,945.73127 157.87724,947.38079 160.43221,948.84331 C 161.877,949.67034 159.74264,952.36475 158.49399,951.39824 C 154.80831,948.54538 153.02729,948.89492 149.24337,944.96686 C 153.02729,948.89492 154.83508,948.5374 158.49399,951.39824 C 159.19156,951.94366 158.74871,953.68952 157.96539,953.42457 C 153.20206,951.81342 147.42262,949.13698 145.36692,945.14306"
       style="opacity:1;color:#000000;fill:#ffffff;fill-opacity:1;fill-rule:evenodd;stroke:#000000;stroke-width:1px;stroke-linecap:butt;stroke-linejoin:miter;marker:none;marker-start:none;marker-mid:none;marker-end:none;stroke-miterlimit:4;stroke-dasharray:none;stroke-dashoffset:0;stroke-opacity:1;visibility:visible;display:inline;overflow:visible;enable-background:accumulate"
       id="path9521" />
    <path
       d="M 45.812605,129.62353 C 38.764512,128.04656 36.366413,127.75195 42.941759,122.42946 C 49.190681,117.37121 64.917379,108.44499 104.08763,108.47925 C 143.13329,108.51351 178.80525,121.2531 180.83886,122.0166 C 183.03513,118.93198 198.56157,107.98696 204.10795,106.05517 C 209.61675,104.13647 209.60383,104.03178 209.80537,108.43283 C 210.01259,112.95822 206.22003,124.79691 204.94468,127.9861 C 207.68574,133.59283 210.47164,147.08016 210.4158,148.67476 C 210.34283,150.75896 209.31951,150.46702 206.95589,150.26058 C 204.73555,150.06666 184.18303,138.69017 181.26943,134.13181 C 177.54027,135.80927 136.24349,145.42128 106.09974,145.70069 C 76.08058,145.98011 50.359966,137.15748 43.591292,132.78265 C 37.22114,128.6654 41.224009,128.21391 45.812605,129.62353 z "
       transform="translate(0,804.33069)"
       style="fill:#ffffff;fill-opacity:1;fill-rule:evenodd;stroke:#000000;stroke-width:1px;stroke-linecap:butt;stroke-linejoin:round;stroke-opacity:1"
       id="path7551" />
    <path
       d="M 87.572556,134.7334 C 93.240397,139.57896 99.366831,143.74771 104.57608,149.27009 C 105.87087,150.64271 102.60231,151.96391 101.66874,150.94401 C 97.106114,145.95948 91.566475,141.42908 86.515342,136.67162 C 91.566475,141.42908 97.125344,145.96679 101.66874,150.94401 C 102.61177,151.97709 98.914494,153.96094 97.616088,152.26553 C 94.214931,147.82442 89.751115,142.5459 84.884174,138.18446 C 89.751115,142.5459 94.180091,147.80757 97.616088,152.26553 C 98.632362,153.58407 94.796436,153.84048 93.91584,152.52983 C 91.111161,148.35545 87.65623,144.29993 83.872307,140.37187 C 87.65623,144.29993 91.137934,148.34747 93.91584,152.52983 C 94.405755,153.26744 92.281653,153.74719 91.713311,153.14654 C 88.271503,149.50906 85.311293,145.1587 82.110284,141.16478"
       transform="translate(0,804.33069)"
       style="opacity:1;color:#000000;fill:#ffffff;fill-opacity:1;fill-rule:evenodd;stroke:#000000;stroke-width:1px;stroke-linecap:round;stroke-linejoin:round;marker:none;marker-start:none;marker-mid:none;marker-end:none;stroke-miterlimit:4;stroke-dasharray:none;stroke-dashoffset:0;stroke-opacity:1;visibility:visible;display:inline;overflow:visible;enable-background:accumulate"
       id="path8522" />
    <path
       d="M 68.454604,117.20127 C 83.431801,125.21847 86.251038,134.29289 67.39739,141.34099"
       transform="translate(0,804.33069)"
       style="opacity:1;color:#000000;fill:none;fill-opacity:0.75;fill-rule:evenodd;stroke:#000000;stroke-width:1px;stroke-linecap:round;stroke-linejoin:miter;marker:none;marker-start:none;marker-mid:none;marker-end:none;stroke-miterlimit:4;stroke-dasharray:none;stroke-dashoffset:0;stroke-opacity:1;visibility:visible;display:inline;overflow:visible;enable-background:accumulate"
       id="path8524" />
    <path
       d="M 65.10676 121.95873 A 4.316957 4.316957 0 1 1  56.472846,121.95873 A 4.316957 4.316957 0 1 1  65.10676 121.95873 z"
       transform="translate(0,804.33069)"
       style="opacity:1;color:#000000;fill:none;fill-opacity:0.75;fill-rule:evenodd;stroke:#000000;stroke-width:1pt;stroke-linecap:butt;stroke-linejoin:miter;marker:none;marker-start:none;marker-mid:none;marker-end:none;stroke-miterlimit:4;stroke-dasharray:none;stroke-dashoffset:0;stroke-opacity:1;visibility:visible;display:inline;overflow:visible;enable-background:accumulate"
       id="path8526" />
    <path
       d="M 65.10676 121.95873 A 4.316957 4.316957 0 1 1  56.472846,121.95873 A 4.316957 4.316957 0 1 1  65.10676 121.95873 z"
       transform="matrix(0.4489796,0,0,0.4489796,33.496422,871.53244)"
       style="opacity:1;color:#000000;fill:#000000;fill-opacity:1;fill-rule:evenodd;stroke:#000000;stroke-width:2.2272728pt;stroke-linecap:butt;stroke-linejoin:miter;marker:none;marker-start:none;marker-mid:none;marker-end:none;stroke-miterlimit:4;stroke-dasharray:none;stroke-dashoffset:0;stroke-opacity:1;visibility:visible;display:inline;overflow:visible;enable-background:accumulate"
       id="path8530" />
    <path
       d="M 65.10676 121.95873 A 4.316957 4.316957 0 1 1  56.472846,121.95873 A 4.316957 4.316957 0 1 1  65.10676 121.95873 z"
       transform="matrix(0.3265306,0,0,0.3265306,24.817558,889.81401)"
       style="opacity:1;color:#000000;fill:#000000;fill-opacity:1;fill-rule:evenodd;stroke:none;stroke-width:2.2272728pt;stroke-linecap:butt;stroke-linejoin:miter;marker:none;marker-start:none;marker-mid:none;marker-end:none;stroke-miterlimit:4;stroke-dasharray:none;stroke-dashoffset:0;stroke-opacity:1;visibility:visible;display:inline;overflow:visible;enable-background:accumulate"
       id="path9501" />
    <path
       d="M 204.94468,127.9861 L 193.91066,127.3329"
       transform="translate(0,804.33069)"
       style="fill:none;fill-opacity:0.75;fill-rule:evenodd;stroke:#000000;stroke-width:1px;stroke-linecap:round;stroke-linejoin:miter;stroke-opacity:1"
       id="path9503" />
    <path
       d="M 206.68533,132.26657 C 202.36837,131.83187 198.05142,131.18713 193.73446,129.35923"
       transform="translate(0,804.33069)"
       style="fill:none;fill-opacity:0.75;fill-rule:evenodd;stroke:#000000;stroke-width:1px;stroke-linecap:round;stroke-linejoin:miter;stroke-opacity:1"
       id="path9505" />
    <path
       d="M 208.35925,138.08124 C 203.14887,136.25262 197.85772,134.1817 192.41294,131.64986"
       transform="translate(0,804.33069)"
       style="fill:none;fill-opacity:0.75;fill-rule:evenodd;stroke:#000000;stroke-width:1px;stroke-linecap:round;stroke-linejoin:miter;stroke-opacity:1"
       id="path9507" />
    <path
       d="M 209.32836,143.10301 C 202.36834,140.57766 195.52588,137.22939 188.80079,133.05948"
       transform="translate(0,804.33069)"
       style="fill:none;fill-opacity:0.75;fill-rule:evenodd;stroke:#000000;stroke-width:1px;stroke-linecap:round;stroke-linejoin:miter;stroke-opacity:1"
       id="path9509" />
    <path
       d="M 210.03317,147.50807 C 201.31496,144.43868 192.93776,140.00525 184.92434,134.11669"
       transform="translate(0,804.33069)"
       style="fill:none;fill-opacity:0.75;fill-rule:evenodd;stroke:#000000;stroke-width:1px;stroke-linecap:round;stroke-linejoin:miter;stroke-opacity:1"
       id="path9511" />
    <path
       d="M 206.94963,121.95873 C 201.93583,122.59138 197.13317,123.6463 192.58914,125.21847"
       transform="translate(0,804.33069)"
       style="fill:none;fill-opacity:0.75;fill-rule:evenodd;stroke:#000000;stroke-width:1px;stroke-linecap:round;stroke-linejoin:miter;stroke-opacity:1"
       id="path9513" />
    <path
       d="M 208.27115,117.02507 C 202.29631,118.91817 196.23198,119.91631 190.47471,123.98506"
       transform="translate(0,804.33069)"
       style="fill:none;fill-opacity:0.75;fill-rule:evenodd;stroke:#000000;stroke-width:1px;stroke-linecap:round;stroke-linejoin:miter;stroke-opacity:1"
       id="path9515" />
    <path
       d="M 209.32836,111.56279 C 200.89397,114.78932 192.83174,118.25268 186.95067,123.10405"
       transform="translate(0,804.33069)"
       style="fill:none;fill-opacity:0.75;fill-rule:evenodd;stroke:#000000;stroke-width:1px;stroke-linecap:round;stroke-linejoin:miter;stroke-opacity:1"
       id="path9517" />
    <path
       d="M 209.50457,106.71723 C 200.18007,110.88867 191.40767,115.68123 183.95523,121.95873"
       transform="translate(0,804.33069)"
       style="fill:none;fill-opacity:0.75;fill-rule:evenodd;stroke:#000000;stroke-width:1px;stroke-linecap:round;stroke-linejoin:miter;stroke-opacity:1"
       id="path9519" />
  </g>
</svg>

<svg xmlns="http://www.w3.org/2000/svg" version="1.0" width="214.071" height="250.75"><path d="m18.717 812.862 3.855 161.977c2.755 115.698 201.605 115.698 204.36 0l3.855-161.977H18.717z" style="fill:#ffef08;fill-opacity:1;fill-rule:evenodd;stroke:#000;stroke-width:2;stroke-linecap:butt;stroke-miterlimit:4;stroke-dashoffset:0;stroke-opacity:1" transform="translate(-17.717 -811.862)"/><path d="M62.031 78.969c-14.346 0-16.685 10.5-31.031 10.5-3.697 0-7.177-.618-10.406-1.531l1.906 80.468c2.672.632 5.49 1.031 8.5 1.031 14.346 0 16.685-10.468 31.031-10.468 14.347 0 16.654 10.468 31 10.469 14.347 0 16.654-10.47 31-10.47 14.347 0 16.685 10.47 31.031 10.47 14.347 0 16.648-10.47 30.97-10.47 14.32 0 16.653 10.47 31 10.47 3.506 0 6.842-.46 9.968-1.188l1.906-80.5c-3.678 1.017-7.674 1.719-11.875 1.719-14.346 0-16.678-10.5-31-10.5-14.321 0-16.622 10.5-30.969 10.5-14.346 0-16.684-10.5-31.03-10.5-14.347 0-16.654 10.5-31 10.5-14.347 0-16.654-10.5-31-10.5z" transform="translate(-17.717 -7.532)" style="fill:#000;fill-opacity:1;fill-rule:evenodd;stroke:none;stroke-width:1px;stroke-linecap:butt;stroke-linejoin:miter;stroke-opacity:1"/><path d="M99.136 913.377c1.3-5.376 12.349-11.566 23.29-13.9 1.845-.395 2.504 2.254 1.133 2.433-6.91.898-17.203 6.713-20.103 11.628 2.9-4.959 13.212-10.42 20.103-11.628 2.269-.398 2.564 1.92 1.406 2.204-5.432 1.335-13.69 4.968-17.785 9.361 4.094-4.393 12.28-8.188 17.785-9.36 1.94-.414 2.155 2.474 1.282 2.63-4.95.888-11.138 5.039-12.471 6.978 1.333-1.939 7.602-5.752 12.471-6.977 1.522-.383 2.487 2.218 1.255 2.591-3.109.944-6.713 3.317-7.326 4.898.609-1.64 4.202-4.032 7.326-4.898 1.92-.531 3.4 4.188-.282 4.902" style="opacity:1;color:#000;fill:#fff;fill-opacity:1;fill-rule:evenodd;stroke:#000;stroke-width:1px;stroke-linecap:butt;stroke-linejoin:miter;marker:none;marker-start:none;marker-mid:none;marker-end:none;stroke-miterlimit:4;stroke-dasharray:none;stroke-dashoffset:0;stroke-opacity:1;visibility:visible;display:inline;overflow:visible;enable-background:accumulate" transform="translate(-17.717 -811.862)"/><path d="M160.505 942.03c.497.548 1.534 1.25 2.27 1.673 1.456.838.397 3.259-.757 2.497-1.323-.873-3.562-1.834-4.875-3.29 1.313 1.518 3.571 2.487 4.875 3.29 1.19.734.238 3.754-1.586 2.643-2.52-1.533-5.574-3.112-7.534-4.918 1.96 1.806 4.98 3.456 7.534 4.918 1.445.827-.69 3.522-1.938 2.555-3.686-2.853-5.467-2.503-9.25-6.431 3.783 3.928 5.591 3.57 9.25 6.431.698.546.255 2.292-.529 2.027-4.763-1.612-10.542-4.288-12.598-8.282" style="opacity:1;color:#000;fill:#fff;fill-opacity:1;fill-rule:evenodd;stroke:#000;stroke-width:1px;stroke-linecap:butt;stroke-linejoin:miter;marker:none;marker-start:none;marker-mid:none;marker-end:none;stroke-miterlimit:4;stroke-dasharray:none;stroke-dashoffset:0;stroke-opacity:1;visibility:visible;display:inline;overflow:visible;enable-background:accumulate" transform="translate(-17.717 -811.862)"/><path d="M45.813 129.624c-7.048-1.577-9.447-1.872-2.871-7.195 6.249-5.058 21.975-13.984 61.146-13.95 39.045.035 74.717 12.774 76.75 13.538 2.197-3.085 17.724-14.03 23.27-15.962 5.509-1.919 5.496-2.023 5.697 2.378.208 4.525-3.585 16.364-4.86 19.553 2.74 5.607 5.527 19.094 5.47 20.689-.072 2.084-1.095 1.792-3.46 1.586-2.22-.194-22.772-11.57-25.686-16.13-3.729 1.678-45.026 11.29-75.17 11.57-30.018.28-55.739-8.544-62.508-12.918-6.37-4.118-2.367-4.57 2.222-3.16z" transform="translate(-17.717 -7.532)" style="fill:#fff;fill-opacity:1;fill-rule:evenodd;stroke:#000;stroke-width:1px;stroke-linecap:butt;stroke-linejoin:round;stroke-opacity:1"/><path d="M87.573 134.733c5.667 4.846 11.794 9.015 17.003 14.537 1.295 1.373-1.974 2.694-2.907 1.674-4.563-4.985-10.103-9.515-15.154-14.272 5.051 4.757 10.61 9.295 15.154 14.272.943 1.033-2.755 3.017-4.053 1.322-3.401-4.442-7.865-9.72-12.732-14.082 4.867 4.362 9.296 9.624 12.732 14.082 1.016 1.318-2.82 1.574-3.7.264-2.805-4.175-6.26-8.23-10.044-12.158 3.784 3.928 7.266 7.975 10.044 12.158.49.737-1.634 1.217-2.203.617-3.441-3.638-6.402-7.988-9.603-11.982" transform="translate(-17.717 -7.532)" style="opacity:1;color:#000;fill:#fff;fill-opacity:1;fill-rule:evenodd;stroke:#000;stroke-width:1px;stroke-linecap:round;stroke-linejoin:round;marker:none;marker-start:none;marker-mid:none;marker-end:none;stroke-miterlimit:4;stroke-dasharray:none;stroke-dashoffset:0;stroke-opacity:1;visibility:visible;display:inline;overflow:visible;enable-background:accumulate"/><path d="M68.455 117.201c14.977 8.017 17.796 17.092-1.058 24.14" transform="translate(-17.717 -7.532)" style="opacity:1;color:#000;fill:none;fill-opacity:.75;fill-rule:evenodd;stroke:#000;stroke-width:1px;stroke-linecap:round;stroke-linejoin:miter;marker:none;marker-start:none;marker-mid:none;marker-end:none;stroke-miterlimit:4;stroke-dasharray:none;stroke-dashoffset:0;stroke-opacity:1;visibility:visible;display:inline;overflow:visible;enable-background:accumulate"/><path d="M65.107 121.959a4.317 4.317 0 1 1-8.634 0 4.317 4.317 0 1 1 8.634 0z" transform="translate(-17.717 -7.532)" style="opacity:1;color:#000;fill:none;fill-opacity:.75;fill-rule:evenodd;stroke:#000;stroke-width:1pt;stroke-linecap:butt;stroke-linejoin:miter;marker:none;marker-start:none;marker-mid:none;marker-end:none;stroke-miterlimit:4;stroke-dasharray:none;stroke-dashoffset:0;stroke-opacity:1;visibility:visible;display:inline;overflow:visible;enable-background:accumulate"/><path d="M65.107 121.959a4.317 4.317 0 1 1-8.634 0 4.317 4.317 0 1 1 8.634 0z" transform="matrix(.44898 0 0 .44898 15.78 59.67)" style="opacity:1;color:#000;fill:#000;fill-opacity:1;fill-rule:evenodd;stroke:#000;stroke-width:2.2272728pt;stroke-linecap:butt;stroke-linejoin:miter;marker:none;marker-start:none;marker-mid:none;marker-end:none;stroke-miterlimit:4;stroke-dasharray:none;stroke-dashoffset:0;stroke-opacity:1;visibility:visible;display:inline;overflow:visible;enable-background:accumulate"/><path d="M65.107 121.959a4.317 4.317 0 1 1-8.634 0 4.317 4.317 0 1 1 8.634 0z" transform="translate(7.101 77.952) scale(.32653)" style="opacity:1;color:#000;fill:#000;fill-opacity:1;fill-rule:evenodd;stroke:none;stroke-width:2.2272728pt;stroke-linecap:butt;stroke-linejoin:miter;marker:none;marker-start:none;marker-mid:none;marker-end:none;stroke-miterlimit:4;stroke-dasharray:none;stroke-dashoffset:0;stroke-opacity:1;visibility:visible;display:inline;overflow:visible;enable-background:accumulate"/><path d="m204.945 127.986-11.034-.653M206.685 132.267c-4.317-.435-8.634-1.08-12.95-2.908M208.36 138.081c-5.211-1.828-10.502-3.9-15.947-6.431M209.328 143.103c-6.96-2.525-13.802-5.874-20.527-10.044M210.033 147.508c-8.718-3.07-17.095-7.503-25.109-13.391M206.95 121.959c-5.014.632-9.817 1.687-14.36 3.26M208.271 117.025c-5.975 1.893-12.039 2.891-17.796 6.96M209.328 111.563c-8.434 3.226-16.496 6.69-22.377 11.541M209.505 106.717c-9.325 4.172-18.097 8.964-25.55 15.242" transform="translate(-17.717 -7.532)" style="fill:none;fill-opacity:.75;fill-rule:evenodd;stroke:#000;stroke-width:1px;stroke-linecap:round;stroke-linejoin:miter;stroke-opacity:1"/></svg>
